source/img/svg/gift.svg

<svg width="80" height="83" viewBox="0 0 80 83" fill="none" xmlns="http://www.w3.org/2000/svg">
<path d="M65.6571 36.0148H14.3908C12.5914 36.0148 11.1277 34.544 11.1277 32.736V22.9127C11.1277 21.1046 12.5914 19.6333 14.3908 19.6333H65.6564C67.4552 19.6333 68.9183 21.1046 68.9183 22.9127V32.7366C68.9189 34.544 67.4558 36.0148 65.6571 36.0148ZM14.3908 22.1463C13.9771 22.1463 13.6277 22.4975 13.6277 22.9127V32.7366C13.6277 33.1588 13.9702 33.5024 14.3908 33.5024H65.6564C66.0764 33.5024 66.4183 33.1588 66.4183 32.7366V22.9127C66.4183 22.4968 66.0689 22.1463 65.6564 22.1463H14.3908Z" fill="white"/>
<path d="M58.5075 69.6672H21.5375C18.0737 69.6672 15.2556 66.8351 15.2556 63.3527V34.7582C15.2556 34.0646 15.8156 33.5017 16.5056 33.5017C17.1956 33.5017 17.7556 34.0646 17.7556 34.7582V63.3527C17.7556 65.4492 19.4525 67.1542 21.5375 67.1542H58.5075C60.5919 67.1542 62.2881 65.4492 62.2881 63.3527V34.7582C62.2881 34.0646 62.8481 33.5017 63.5381 33.5017C64.2281 33.5017 64.7881 34.0646 64.7881 34.7582V63.3527C64.7881 66.8351 61.9706 69.6672 58.5075 69.6672Z" fill="white"/>
<path d="M40.0232 69.6672C39.3332 69.6672 38.7732 69.1049 38.7732 68.4107V34.7582C38.7732 34.0646 39.3332 33.5017 40.0232 33.5017C40.7132 33.5017 41.2732 34.0646 41.2732 34.7582V68.4101C41.2732 69.1049 40.7138 69.6672 40.0232 69.6672Z" fill="white"/>
<path d="M24.4218 22.1418C20.5093 20.0108 19.0493 15.0778 21.1674 11.1444C23.2843 7.21283 28.1911 5.74463 32.1055 7.87186C38.0686 11.1186 41.2886 20.1766 41.4224 20.5605L39.0643 21.3942C39.0343 21.3087 36.0261 12.8645 30.9161 10.082C28.213 8.61319 24.8268 9.62718 23.3661 12.3406C21.9043 15.0565 22.9118 18.4615 25.6136 19.9323L24.4218 22.1418Z" fill="white"/>
<path d="M55.6218 22.1418L54.4318 19.9316C55.7411 19.2185 56.6955 18.0368 57.1205 16.6038C57.5449 15.1701 57.388 13.6561 56.6786 12.3412C55.9711 11.025 54.7961 10.0663 53.3705 9.6397C51.9443 9.21313 50.4393 9.37019 49.1305 10.082C44.0205 12.8639 41.0124 21.3081 40.9824 21.3935L38.6243 20.5598C38.758 20.176 41.9774 11.118 47.9405 7.87183C49.8355 6.84025 52.0186 6.61282 54.0836 7.23102C56.1505 7.84858 57.8524 9.23889 58.878 11.1443C59.9049 13.0492 60.1318 15.2424 59.5168 17.32C58.9011 19.397 57.518 21.1089 55.6218 22.1418Z" fill="white"/>
<path d="M63.5381 52.8407H16.5056C15.8156 52.8407 15.2556 52.278 15.2556 51.5847C15.2556 50.8913 15.8156 50.3286 16.5056 50.3286H63.5381C64.2281 50.3286 64.7881 50.8913 64.7881 51.5847C64.7881 52.278 64.2287 52.8407 63.5381 52.8407Z" fill="white"/>
</svg>

<svg viewBox="0 0 80 83" fill="none" xmlns="http://www.w3.org/2000/svg">
    <path fill="#fff" d="M65.66 36.01H14.39a3.27 3.27 0 0 1-3.26-3.27V22.9c0-1.8 1.46-3.28 3.26-3.28h51.27c1.8 0 3.26 1.47 3.26 3.28v9.83c0 1.8-1.46 3.27-3.26 3.27ZM14.39 22.15a.78.78 0 0 0-.76.76v9.83c0 .42.34.76.76.76h51.27c.42 0 .76-.34.76-.76V22.9a.77.77 0 0 0-.76-.76H14.39Z"/>
    <path fill="#fff" d="M58.5 69.67H21.55a6.3 6.3 0 0 1-6.28-6.32v-28.6c0-.69.56-1.25 1.25-1.25s1.25.56 1.25 1.26v28.6c0 2.09 1.7 3.8 3.78 3.8H58.5a3.8 3.8 0 0 0 3.78-3.8v-28.6c0-.7.56-1.26 1.25-1.26s1.25.56 1.25 1.26v28.6a6.3 6.3 0 0 1-6.28 6.3Z"/>
    <path fill="#fff" d="M40.02 69.67c-.69 0-1.25-.57-1.25-1.26V34.76c0-.7.56-1.26 1.25-1.26.7 0 1.25.56 1.25 1.26V68.4c0 .7-.56 1.26-1.25 1.26ZM24.42 22.14a8.15 8.15 0 0 1-3.25-11A8.06 8.06 0 0 1 32.1 7.87c5.96 3.25 9.18 12.3 9.31 12.7l-2.36.82c-.03-.08-3.03-8.53-8.14-11.3a5.56 5.56 0 0 0-7.55 2.25 5.62 5.62 0 0 0 2.24 7.6l-1.19 2.2Z"/>
    <path fill="#fff" d="m55.62 22.14-1.19-2.2a5.58 5.58 0 0 0-5.3-9.85c-5.1 2.77-8.12 11.22-8.15 11.3l-2.36-.83c.14-.38 3.36-9.44 9.32-12.69a8.02 8.02 0 0 1 10.94 3.27 8.1 8.1 0 0 1-3.26 11ZM63.54 52.84H16.5a1.25 1.25 0 0 1 0-2.51h47.03a1.25 1.25 0 0 1 0 2.51Z"/>
</svg>
